!!!COM: Robert Schumann
!!!CNT: Deutsch
!!!TXO: Deutsch
!!!OTL: Auf das Trinkglas eines verstorbenen Freundes
!!!LYR: Kerner
!!!OPR: Zwo2lf Gedichte
!!!OPS: Op.35
!!!ONM: No. 6
!!!ENC: Ben Fuhrman
!!!YOR: Schumann Lieder - Max Friedlaender, ed.,
!!!YOR: New York: C. F. Peters, Vol. 2
!!!ODT: 1840/
!!NB: Vocal melody and text only encoded.
!!NB: First instance of melodic material only encoded.
**kern	**silbe
*clefG2	*
*k[b-e-a-]	*
*M4/4	*
!!created: 06/29/06 10:40
!!proofed and posted: 06/29/06 10:40
!!edit time: 50 minutes
=	=
2.r	.
{4B-	{Du
=1	=1
4.e-	herr-
8e-	-lich
4f	Glas,
4g	nun
=2	=2
4a-	stehs
4a-	du
2g	leer,
=3	=3
4g	Glas,
8.f	das
16e-	er
4d	oft
4e-	mit
=4	=4
4.b-	Lust
8an	ge-
4cc	-ho-
4b-}	-ben;}
!! half note rest added for continuity
=5	=5
2r	.
4r	.
{4B-	{Die
=6	=6
4.e-	Spin-
8e-	-ne
4f	hat
4g	rings
=7	=7
4a-	um
4a-	dich
4.g	her
8b-	in-
=8	=8
(4b-	des
8.an)	|
16g	den
4f#	du2-
4g	-stern
=9	=9
4.e-	Flor
8d	ge-
4g	-wo-
4fn}	-ben.}
!! half note rest added for continuity
=10	=10
2r	.
4r	.
{4f	{Jetzt
=11	=11
4.f	sollst
8f	du
4f	mir
4f	ge-
=12	=12
4.a-	-fu2l-
8e-	-let
4e-	sein,
(8e-	mond-
8f)	|
=13	=13
4g-	-hell
4a-	mit
8f	Gold
8d-	der
8.A-	deut-
16f	-schen
=14	=14
4e-	Re-
4f}	-ben!}
2r	.
!! half note rest added for continuity
=15	=15
2r	.
4r	.
{4a-	{In
=16	=16
4.a-	dei-
8a-	-ner
4a-	Tie-
4a-	-fe
=17	=17
4.cc	heil'
8g	gen
4g	Schein
(8g	schau'
8a-)	|
=18	=18
4b-	ich
4cc	hin-
8a-	-ab
8f	mit
8c	from-
8a-	-men
=19	=19
4g	Be-
4a-}	-ben.}
2r	.
!! half note rest added for continuity
=20	=20
2r	.
4r	.
{4g-	{Was
=24	=24
4.g-	ich
8g-	er-
4g-	-schau'
4g-	in
=22	=22
4.f	dei-
8f	-nem
4f	Grund,
4g-	ist
=23	=23
4.g-	nicht
8b--	Ge-
8d-	-wo2hn-
8d-	-li-
8b--	-chen
8g-	-zu
=24	=24
4f	nen-
2f}	-nen.}
{4c-	{Doch
=25	=25
4.c-	wird
8c-	mir
4c-	klar
4c-	zu
=26	=26
4.B-	die-
8B-	-ser
4B-	Stund;
4c-	wie
=27	=27
4.c-	nichts
8e--	den
8g-	Freund
8g-	vom
8e-	Freund
8c-	kann
=28	=28
4B-	tren-
2B-}	-nen.}
{4B-	Auf
=29	=29
4.e-	die-
8e-	-sen
4f	Glau-
4g	-ben,
=30	=30
4a-	Glas
4a-	so
2g	hold!
=31	=31
4g	trink'
8.f	ich
16e-	dich
4d	aus
4e-	mit
=32	=32
4.b-	ho-
8an	-hem
4cc	Mut-
4b-}	-te.}
!! half not rest added for continuity
=33	=33
2r	.
4r	.
{4B-	{Klar
=34	=34
4.e-	spie-
8e-	-gelt
4f	sich
4g	der
=35	=35
4a-	Ster-
4a-	-ne
4.g	Gold,
8b-	Po-
=36	=36
(4b-	kal,
8.an)	|
16g	in
4f#	dei-
4g	-nem
=37	=37
4.ee-	teu-
8dd	-ren
4cc	Blu-
4b-}	-te!}
!! rest to measure 41
=41	=41
{2b-	{Still
4.f	geht
8f	der
=42	=42
2.b-	Mond
4b-	das
=43	=43
2.cc	Tal
4g	ent-
=44	=44
1g	-lang
=45	=45
2cc#	Ernst
4.cc#	to2nt
8cc#	die
=46	=46
4.cc#	mit-
8cc#	ter-
4cc#	-na2cht'
4cc#	ge
=47	=47
2cc#	Stun-
4cc#}	-de.}
4r	.
!! rest to measure 49
=49	=49
{2cn	{Leer
4.f	steht
8f	das
=50	=50
2.f	Glas!
4b-	Der
=51	=51
2b-	heil'
2b-	ge
=52	=52
(4cc	Klang
4dd	|
4ee-)	|
4b-	to2nt
=53	=53
4.b-	nach
8b-	in
4b-	dem
4b-	kri-
=54	=54
(4cc	stall'
4dd	|
4ee-)	|
4b-	nen
=55	=55
[1cc	Grun-
=56	=56
(2..cc]	|
8b-)	|
=57	=57
2e-}	-de.}
2r	.
==	==
*-	*-
